img/l/letsdothis.com.svg

<svg width="80" height="80" viewBox="0 0 80 80" fill="none" xmlns="http://www.w3.org/2000/svg">
<rect width="80" height="80" fill="#0F32FA"/>
<g clip-path="url(#clip0_10295_5808)">
<path d="M52.9923 45.9584L53.5321 35.6452L29.4421 34.3864L64 32.5777L63.4496 22L16 24.4857L16.5504 35.0634L27.0077 34.5134L26.4679 44.8372L50.3779 46.0959L19.2811 47.7249L19.8421 58.3025L60.6977 56.1553L60.1473 45.5776L52.9923 45.9584Z" fill="white"/>
</g>
<defs>
<clipPath id="clip0_10295_5808">
<rect width="48" height="36.3025" fill="white" transform="translate(16 22)"/>
</clipPath>
</defs>
</svg>

<svg xmlns="http://www.w3.org/2000/svg" width="80" height="80" fill="none"><path fill="#0F32FA" d="M0 0h80v80H0z"/><g clip-path="url(#a)"><path fill="#fff" d="m52.992 45.958.54-10.313-24.09-1.259L64 32.578 63.45 22 16 24.486l.55 10.577 10.458-.55-.54 10.324 23.91 1.259-31.097 1.629.561 10.578 40.856-2.148-.55-10.577z"/></g><defs><clipPath id="a"><path fill="#fff" d="M16 22h48v36.303H16z"/></clipPath></defs></svg>
